X: 31
T: Mats Hansu Mats
O: lvdalen, Dalarna
Z:Transcribed to abcby Jon Magnusson 080429
R: Polska
M: 3/4
L: 1/8
K: Am
A3/2c/2 d3/2e/2 fe/2d/2|e/2g3/2 f2 e3/2d/2|e3/2d/2 c2 c3/2A/2|BA/2G/2 A4|
A3/2c/2 d3/2e/2 fe/2d/2|e/2g3/2 f2 e3/2d/2|e3/2d/2 c2 c3/2A/2|BA/2G/2 A4||
A3/2c/2 d3/2e/2 fe/2d/2|e/2g3/2 a2 ab/2a/2|g3/2e/2f e/2d/2e2|e6|
A3/2c/2 d3/2e/2 fe/2d/2|e/2g3/2 a2 ab/2a/2|g3/2e/2f e/2d/2e2|e6||
e3/2c/2 A2 g2|gf/2e/2 f2 d3/2f/2|e3/2d/2 c2 cA|BA/2G/2 A4||
